F[BALLADE
CUT[Die Mordeltern
    Es waren einmal zwei Bauernsoehn,]
CNR[die hattens Lust in den Krieg zu ziehn,]
REG[Osteuropa, UdSSR, Bessarabien]
SRC[4, S. 313
    ????]
KEY[Q0085n 16  G 6/8]
MEL[-5_  1_1_1_3_2_1_  5__565__
    5_  5__565_4_45  3__532__
    -5_  1__2_3_2_1_  6__+1_5__
    +17  6__6_5__3_  5_4_5_3_0_ //] >>
FCT[Ballade, Habgier, Mord, Reue, Selbstmord]
